public/assets/shape-decor.svg

<svg width="103" height="112" viewBox="0 0 103 112" fill="none" xmlns="http://www.w3.org/2000/svg">
<g clip-path="url(#clip0_1_2382)">
<path d="M18.67 111.08V59.01" stroke="#ADCB53" stroke-width="1.23" stroke-linecap="round" stroke-linejoin="round"/>
<path d="M22.37 59.2C22.37 57.16 20.71 55.5 18.67 55.5C16.63 55.5 14.97 57.16 14.97 59.2C14.97 61.24 16.63 62.9 18.67 62.9C20.71 62.9 22.37 61.24 22.37 59.2Z" fill="#ADCB53"/>
<path d="M27.61 111.08V70.03" stroke="#ADCB53" stroke-width="1.23" stroke-linecap="round" stroke-linejoin="round"/>
<path d="M31.31 70.22C31.31 68.18 29.65 66.52 27.61 66.52C25.57 66.52 23.91 68.18 23.91 70.22C23.91 72.26 25.57 73.92 27.61 73.92C29.65 73.92 31.31 72.26 31.31 70.22Z" fill="#ADCB53"/>
<path d="M9.60999 111.08V69.8701" stroke="#ADCB53" stroke-width="1.23" stroke-linecap="round" stroke-linejoin="round"/>
<path d="M13.31 70.0501C13.31 68.0101 11.65 66.3501 9.60997 66.3501C7.56997 66.3501 5.90997 68.0101 5.90997 70.0501C5.90997 72.0901 7.56997 73.7501 9.60997 73.7501C11.65 73.7501 13.31 72.0901 13.31 70.0501Z" fill="#ADCB53"/>
<path d="M31.3099 15C32.2399 20.59 37.2099 24.88 43.1499 24.88C49.0899 24.88 54.0499 20.58 54.9899 15" stroke="#A9C753" stroke-width="1.34" stroke-linecap="round" stroke-linejoin="round"/>
<path d="M29.34 15.2899C29.24 14.1799 30.05 13.1999 31.15 13.0999C32.25 12.9999 33.24 13.8099 33.34 14.9099C33.44 16.0099 32.63 16.9999 31.53 17.0999C30.43 17.1999 29.44 16.3899 29.34 15.2899Z" fill="#A9C753"/>
<path d="M56.9499 15.2899C57.0499 14.1799 56.2399 13.1999 55.1399 13.0999C54.0399 12.9999 53.0499 13.8099 52.9499 14.9099C52.8499 16.0099 53.6599 16.9999 54.7599 17.0999C55.8599 17.1999 56.8499 16.3899 56.9499 15.2899Z" fill="#A9C753"/>
<path d="M25.42 31.1001C26.4 39.8501 33.99 46.7201 43.15 46.7201C52.3 46.7201 59.9 39.8501 60.88 31.1001" stroke="#A9C753" stroke-width="1.34" stroke-linecap="round" stroke-linejoin="round"/>
<path d="M23.43 31.3201C23.36 30.2101 24.2 29.2601 25.31 29.1901C26.42 29.1201 27.37 29.9601 27.44 31.0701C27.51 32.1801 26.67 33.1301 25.56 33.2001C24.45 33.2701 23.5 32.4301 23.43 31.3201Z" fill="#A9C753"/>
<path d="M62.86 31.3201C62.93 30.2101 62.09 29.2601 60.98 29.1901C59.87 29.1201 58.92 29.9601 58.85 31.0701C58.78 32.1801 59.62 33.1301 60.73 33.2001C61.84 33.2701 62.79 32.4301 62.86 31.3201Z" fill="#A9C753"/>
<path d="M43.14 1.90991V109.91" stroke="#A9C753" stroke-width="1.34" stroke-linecap="round" stroke-linejoin="round"/>
<path d="M41.13 2.01C41.13 0.9 42.03 0 43.14 0C44.25 0 45.15 0.9 45.15 2.01C45.15 3.12 44.25 4.02 43.14 4.02C42.03 4.02 41.13 3.12 41.13 2.01Z" fill="#A9C753"/>
<path d="M92 110.86L78.03 85.36C75.02 79.16 66.04 79.16 63.04 85.36L50.64 110.86" stroke="#A9C753" stroke-width="1.34" stroke-linecap="round" stroke-linejoin="round"/>
<path d="M80.6 109.91C78.63 105.7 75.41 99.86 73.44 95.65C72.67 94 71.88 92.31 70.63 90.97C68.83 89.02 66.23 88.49 63.74 89.38C63.01 89.64 62.34 90.02 61.66 90.39C61.15 90.67 60.65 90.96 60.14 91.24" stroke="#A9C753" stroke-width="1.34" stroke-linecap="round" stroke-linejoin="round"/>
<path d="M0.669983 111.08H101.99" stroke="#A9C753" stroke-width="1.34" stroke-linecap="round" stroke-linejoin="round"/>
</g>
<defs>
<clipPath id="clip0_1_2382">
<rect width="102.66" height="111.74" fill="white"/>
</clipPath>
</defs>
</svg>

<svg xmlns="http://www.w3.org/2000/svg" width="103" height="112" fill="none" viewBox="0 0 103 112"><g clip-path="url(#a)"><path stroke="#adcb53" stroke-linecap="round" stroke-linejoin="round" stroke-width="1.23" d="M18.67 111.08V59.01"/><path fill="#adcb53" d="M22.37 59.2c0-2.04-1.66-3.7-3.7-3.7s-3.7 1.66-3.7 3.7 1.66 3.7 3.7 3.7 3.7-1.66 3.7-3.7"/><path stroke="#adcb53" stroke-linecap="round" stroke-linejoin="round" stroke-width="1.23" d="M27.61 111.08V70.03"/><path fill="#adcb53" d="M31.31 70.22c0-2.04-1.66-3.7-3.7-3.7s-3.7 1.66-3.7 3.7 1.66 3.7 3.7 3.7 3.7-1.66 3.7-3.7"/><path stroke="#adcb53" stroke-linecap="round" stroke-linejoin="round" stroke-width="1.23" d="M9.61 111.08V69.87"/><path fill="#adcb53" d="M13.31 70.05c0-2.04-1.66-3.7-3.7-3.7s-3.7 1.66-3.7 3.7 1.66 3.7 3.7 3.7 3.7-1.66 3.7-3.7"/><path stroke="#a9c753" stroke-linecap="round" stroke-linejoin="round" stroke-width="1.34" d="M31.31 15c.93 5.59 5.9 9.88 11.84 9.88s10.9-4.3 11.84-9.88"/><path fill="#a9c753" d="M29.34 15.29a2.01 2.01 0 0 1 1.81-2.19c1.1-.1 2.09.71 2.19 1.81s-.71 2.09-1.81 2.19-2.09-.71-2.19-1.81m27.61 0a2.01 2.01 0 0 0-1.81-2.19c-1.1-.1-2.09.71-2.19 1.81s.71 2.09 1.81 2.19 2.09-.71 2.19-1.81"/><path stroke="#a9c753" stroke-linecap="round" stroke-linejoin="round" stroke-width="1.34" d="M25.42 31.1c.98 8.75 8.57 15.62 17.73 15.62 9.15 0 16.75-6.87 17.73-15.62"/><path fill="#a9c753" d="M23.43 31.32c-.07-1.11.77-2.06 1.88-2.13s2.06.77 2.13 1.88-.77 2.06-1.88 2.13-2.06-.77-2.13-1.88m39.43 0c.07-1.11-.77-2.06-1.88-2.13s-2.06.77-2.13 1.88.77 2.06 1.88 2.13 2.06-.77 2.13-1.88"/><path stroke="#a9c753" stroke-linecap="round" stroke-linejoin="round" stroke-width="1.34" d="M43.14 1.91v108"/><path fill="#a9c753" d="M41.13 2.01a2.01 2.01 0 1 1 4.02 0 2.01 2.01 0 0 1-4.02 0"/><path stroke="#a9c753" stroke-linecap="round" stroke-linejoin="round" stroke-width="1.34" d="m92 110.86-13.97-25.5c-3.01-6.2-11.99-6.2-14.99 0l-12.4 25.5"/><path stroke="#a9c753" stroke-linecap="round" stroke-linejoin="round" stroke-width="1.34" d="M80.6 109.91c-1.97-4.21-5.19-10.05-7.16-14.26-.77-1.65-1.56-3.34-2.81-4.68-1.8-1.95-4.4-2.48-6.89-1.59-.73.26-1.4.64-2.08 1.01-.51.28-1.01.57-1.52.85M.67 111.08h101.32"/></g><defs><clipPath id="a"><path fill="#fff" d="M0 0h102.66v111.74H0z"/></clipPath></defs></svg>
